public/svg/blanks.svg

<svg width="106" height="79" viewBox="0 0 106 79" fill="none" xmlns="http://www.w3.org/2000/svg">
<g clip-path="url(#clip0_1117_2899)">
<rect x="6.86719" y="16.4093" width="92.2656" height="62.5908" rx="8" fill="#F8F8F8"/>
<path fill-rule="evenodd" clip-rule="evenodd" d="M56.3994 23.444C56.3994 21.7872 55.0563 20.444 53.3994 20.444H10.81C9.15315 20.444 7.81 21.7872 7.81 23.444V25.1644C7.81 25.7038 8.35729 26.0837 8.89671 26.0837H19.124C20.8909 26.0837 22.3233 27.5161 22.3233 29.2831C22.3233 31.05 20.8909 32.4824 19.124 32.4824H8.89671C8.35729 32.4824 7.81 32.8623 7.81 33.4017V47.012C7.81 48.6688 9.15315 50.012 10.81 50.012H53.3994C55.0563 50.012 56.3994 48.6688 56.3994 47.012C56.3994 45.1532 54.8926 43.6463 53.0337 43.6463H46.1554C44.3884 43.6463 42.9561 42.2139 42.9561 40.447C42.9561 38.68 44.3884 37.2477 46.1554 37.2477H54.6256C55.6052 37.2477 56.3994 36.4535 56.3994 35.4738V33.1277C56.3994 32.1765 54.7916 31.4406 53.8404 31.4406H39.2323C37.4654 31.4406 36.033 30.0082 36.033 28.2412C36.033 26.4743 37.4654 25.0419 39.2323 25.0419H53.8404C53.8702 25.0419 53.9 25.0423 53.9297 25.0431C54.852 25.0684 56.3994 24.3667 56.3994 23.444ZM22.3085 44.8721C24.0755 44.8721 25.5079 43.4397 25.5079 41.6728C25.5079 39.9059 24.0755 38.4735 22.3085 38.4735H12.0813C10.3143 38.4735 8.88196 39.9059 8.88196 41.6728C8.88196 43.4397 10.3143 44.8721 12.0813 44.8721H22.3085Z" fill="#EBE8F1"/>
<path fill-rule="evenodd" clip-rule="evenodd" d="M8.03711 75.1657C9.44233 77.4654 11.9762 79.0003 14.8685 79.0003H91.1341C95.5524 79.0003 99.1341 75.4186 99.1341 71.0003V24.4095C99.1341 21.5422 97.6257 19.0273 95.3591 17.6149C96.1005 18.8281 96.5277 20.2543 96.5277 21.7802V68.371C96.5277 72.7893 92.946 76.371 88.5277 76.371H12.2621C10.7111 76.371 9.26318 75.9297 8.03711 75.1657Z" fill="#EBE8F1"/>
<rect x="7.36719" y="16.9093" width="91.2656" height="61.5908" rx="7.5" stroke="#29307A"/>
<rect x="48.8096" y="65.6542" width="46.0643" height="34.9364" rx="4" transform="rotate(-78.9497 48.8096 65.6542)" fill="#FFC8FF"/>
<path fill-rule="evenodd" clip-rule="evenodd" d="M49.9979 62.3552C49.6803 63.9813 50.7411 65.557 52.3672 65.8746L79.3818 71.1503C80.8782 71.4425 82.3319 70.5675 82.8018 69.1588C82.4118 69.2449 81.9982 69.2541 81.5813 69.1727L54.9212 63.9662C53.2951 63.6486 52.2343 62.073 52.5519 60.4468L59.783 23.4195C59.8529 23.0615 59.9838 22.7309 60.1627 22.4364C58.7969 22.4816 57.5934 23.462 57.3203 24.8604L49.9979 62.3552Z" fill="#FEE4FE"/>
<rect x="49.3961" y="65.2593" width="45.0643" height="33.9364" rx="3.5" transform="rotate(-78.9497 49.3961 65.2593)" stroke="#373737"/>
<rect x="63.3477" y="37.2369" width="10.8287" height="1.19898" rx="0.599491" transform="rotate(11.0503 63.3477 37.2369)" fill="#373737"/>
<rect x="62.4492" y="41.8463" width="17.2923" height="1.19898" rx="0.599491" transform="rotate(11.0503 62.4492 41.8463)" fill="#373737"/>
<rect x="61.5479" y="46.4562" width="17.2923" height="1.19898" rx="0.599491" transform="rotate(11.0503 61.5479 46.4562)" fill="#373737"/>
<rect x="60.6475" y="51.0659" width="17.2923" height="1.19898" rx="0.599491" transform="rotate(11.0503 60.6475 51.0659)" fill="#373737"/>
<path d="M69.9462 73.1416C69.1264 73.8739 67.8683 73.803 67.136 72.9833C66.4037 72.1635 66.4746 70.9054 67.2943 70.1731L88.981 50.7996L91.6329 53.7681L69.9462 73.1416Z" fill="#704FE6"/>
<path d="M69.6131 72.7687C68.9993 73.317 68.0572 73.264 67.5089 72.6502C66.9605 72.0364 67.0136 71.0943 67.6274 70.5459L88.9413 51.5056L90.9269 53.7284L69.6131 72.7687Z" stroke="#373737"/>
<path d="M92.8075 50.2379L91.6338 53.7681L88.9819 50.7995L92.5732 49.9798C92.7252 49.9451 92.8566 50.0899 92.8075 50.2379Z" fill="#373737"/>
<rect x="34.8096" y="59.0139" width="48.5699" height="36.8368" rx="4" transform="rotate(-90 34.8096 59.0139)" fill="#704FE6"/>
<path fill-rule="evenodd" clip-rule="evenodd" d="M35.3701 55.5233C35.3701 57.1802 36.7133 58.5233 38.3701 58.5233L67.7186 58.5233C69.2752 58.5233 70.555 57.3377 70.7041 55.8202C70.3609 55.9568 69.9867 56.0319 69.5948 56.0319L40.6273 56.0319C38.9704 56.0319 37.6273 54.6888 37.6273 53.0319L37.6273 12.9266C37.6273 12.5934 37.6816 12.2729 37.7819 11.9734C36.4067 12.2468 35.3701 13.4602 35.3701 14.9158L35.3701 55.5233Z" fill="#DEC8FE"/>
<rect x="35.3096" y="58.5139" width="47.5699" height="35.8368" rx="3.5" transform="rotate(-90 35.3096 58.5139)" stroke="#373737"/>
<rect x="44.1133" y="26.6687" width="11.4177" height="1.2642" rx="0.632099" fill="white"/>
<rect x="44.1143" y="31.6208" width="18.2329" height="1.2642" rx="0.632099" fill="white"/>
<rect x="44.1152" y="36.5732" width="18.2329" height="1.2642" rx="0.632099" fill="white"/>
<rect x="44.1143" y="41.5253" width="18.2329" height="1.2642" rx="0.632099" fill="white"/>
<rect x="26.0947" y="76.6107" width="47.4666" height="36" rx="4" transform="rotate(-105 26.0947 76.6107)" fill="#DEC8FE"/>
<path fill-rule="evenodd" clip-rule="evenodd" d="M25.7235 73.108C26.1524 74.7084 27.7974 75.6581 29.3978 75.2293L56.9706 67.8412C58.4603 67.442 59.3862 65.9892 59.1614 64.4994C58.8583 64.7315 58.5057 64.9092 58.1141 65.0141L30.9008 72.3059C29.3004 72.7347 27.6554 71.785 27.2266 70.1846L17.1176 32.4575C17.0278 32.122 16.9984 31.7846 17.023 31.4568C15.7862 32.0855 15.1141 33.513 15.4876 34.9068L25.7235 73.108Z" fill="#F3EAFE"/>
<rect x="26.4483" y="75.9983" width="46.4666" height="35" rx="3.5" transform="rotate(-105 26.4483 75.9983)" stroke="#373737"/>
<rect x="26.6943" y="43.7244" width="11.1584" height="1.23548" rx="0.617741" transform="rotate(-15 26.6943 43.7244)" fill="#373737"/>
<rect x="27.9473" y="48.3989" width="17.8187" height="1.23548" rx="0.617741" transform="rotate(-15 27.9473 48.3989)" fill="#373737"/>
<rect x="29.1992" y="53.0737" width="17.8187" height="1.23548" rx="0.617741" transform="rotate(-15 29.1992 53.0737)" fill="#373737"/>
<rect x="30.4521" y="57.7488" width="17.8187" height="1.23548" rx="0.617741" transform="rotate(-15 30.4521 57.7488)" fill="#373737"/>
<path d="M91.2195 28.275L87.4519 37.6748C86.9851 38.8391 85.446 39.3487 84.2683 38.9165C83.0458 38.4678 82.1946 36.9704 82.679 35.7618L87.7218 23.1805C88.0754 22.2983 89.2576 21.8218 90.153 22.1408C91.0931 22.4756 91.7089 23.7035 91.3376 24.6297C90.2362 27.3778 87.2222 34.8973 87.2222 34.8973C86.9958 35.462 86.1663 35.8168 85.6015 35.5904C85.0366 35.364 84.6818 34.5345 84.9081 33.9697L87.6904 27.0283" stroke="#373737" stroke-linecap="round"/>
</g>
<defs>
<clipPath id="clip0_1117_2899">
<rect width="106" height="79" fill="white" transform="translate(0 0.000244141)"/>
</clipPath>
</defs>
</svg>

<svg width="106" height="79" viewBox="0 0 106 79" fill="none" xmlns="http://www.w3.org/2000/svg"><g clip-path="url(#a)"><rect x="6.867" y="16.409" width="92.266" height="62.591" rx="8" fill="#F8F8F8"/><path fill-rule="evenodd" clip-rule="evenodd" d="M56.4 23.444a3 3 0 0 0-3-3H10.81a3 3 0 0 0-3 3v1.72c0 .54.547.92 1.087.92h10.227a3.2 3.2 0 0 1 0 6.398H8.897c-.54 0-1.087.38-1.087.92v13.61a3 3 0 0 0 3 3H53.4a3 3 0 0 0 3-3 3.366 3.366 0 0 0-3.366-3.366h-6.879a3.2 3.2 0 1 1 0-6.398h8.47c.98 0 1.774-.794 1.774-1.774v-2.346c0-.952-1.607-1.687-2.559-1.687H39.232a3.2 3.2 0 0 1 0-6.4H53.84l.09.002c.922.025 2.47-.676 2.47-1.599ZM22.307 44.872a3.2 3.2 0 1 0 0-6.398H12.081a3.2 3.2 0 1 0 0 6.398h10.227Z" fill="#EBE8F1"/><path fill-rule="evenodd" clip-rule="evenodd" d="M8.037 75.166A7.995 7.995 0 0 0 14.868 79h76.266a8 8 0 0 0 8-8V24.41a7.995 7.995 0 0 0-3.775-6.795 7.962 7.962 0 0 1 1.169 4.165v46.591a8 8 0 0 1-8 8H12.262a7.963 7.963 0 0 1-4.225-1.205Z" fill="#EBE8F1"/><rect x="7.367" y="16.909" width="91.266" height="61.591" rx="7.5" stroke="#29307A"/><rect x="48.81" y="65.654" width="46.064" height="34.936" rx="4" transform="rotate(-78.95 48.81 65.654)" fill="#FFC8FF"/><path fill-rule="evenodd" clip-rule="evenodd" d="M49.998 62.355a3 3 0 0 0 2.37 3.52l27.014 5.275a3 3 0 0 0 3.42-1.991 2.99 2.99 0 0 1-1.22.014l-26.66-5.207a3 3 0 0 1-2.37-3.52l7.231-37.026c.07-.359.2-.69.38-.984a3.001 3.001 0 0 0-2.843 2.424l-7.322 37.495Z" fill="#FEE4FE"/><rect x="49.396" y="65.259" width="45.064" height="33.936" rx="3.5" transform="rotate(-78.95 49.396 65.26)" stroke="#373737"/><rect x="63.348" y="37.237" width="10.829" height="1.199" rx=".599" transform="rotate(11.05 63.348 37.237)" fill="#373737"/><rect x="62.449" y="41.846" width="17.292" height="1.199" rx=".599" transform="rotate(11.05 62.45 41.846)" fill="#373737"/><rect x="61.548" y="46.456" width="17.292" height="1.199" rx=".599" transform="rotate(11.05 61.548 46.456)" fill="#373737"/><rect x="60.648" y="51.066" width="17.292" height="1.199" rx=".599" transform="rotate(11.05 60.648 51.066)" fill="#373737"/><path d="M69.946 73.142a1.99 1.99 0 0 1-2.652-2.969L88.981 50.8l2.652 2.968-21.687 19.374Z" fill="#704FE6"/><path d="M69.613 72.769a1.49 1.49 0 1 1-1.986-2.223l21.314-19.04 1.986 2.222-21.314 19.04Z" stroke="#373737"/><path d="m92.808 50.238-1.174 3.53-2.652-2.968 3.591-.82a.2.2 0 0 1 .235.258Z" fill="#373737"/><rect x="34.81" y="59.014" width="48.57" height="36.837" rx="4" transform="rotate(-90 34.81 59.014)" fill="#704FE6"/><path fill-rule="evenodd" clip-rule="evenodd" d="M35.37 55.523a3 3 0 0 0 3 3H67.72a3 3 0 0 0 2.985-2.703 2.993 2.993 0 0 1-1.11.212H40.628a3 3 0 0 1-3-3V12.927c0-.334.055-.654.155-.954a3.001 3.001 0 0 0-2.412 2.943v40.607Z" fill="#DEC8FE"/><rect x="35.31" y="58.514" width="47.57" height="35.837" rx="3.5" transform="rotate(-90 35.31 58.514)" stroke="#373737"/><rect x="44.113" y="26.669" width="11.418" height="1.264" rx=".632" fill="#fff"/><rect x="44.114" y="31.621" width="18.233" height="1.264" rx=".632" fill="#fff"/><rect x="44.115" y="36.573" width="18.233" height="1.264" rx=".632" fill="#fff"/><rect x="44.114" y="41.525" width="18.233" height="1.264" rx=".632" fill="#fff"/><rect x="26.095" y="76.611" width="47.467" height="36" rx="4" transform="rotate(-105 26.095 76.61)" fill="#DEC8FE"/><path fill-rule="evenodd" clip-rule="evenodd" d="M25.724 73.108a3 3 0 0 0 3.674 2.121l27.573-7.388a3 3 0 0 0 2.19-3.342c-.303.233-.655.41-1.047.515l-27.213 7.292a3 3 0 0 1-3.674-2.121l-10.11-37.727a2.997 2.997 0 0 1-.094-1.001 3.001 3.001 0 0 0-1.535 3.45l10.236 38.201Z" fill="#F3EAFE"/><rect x="26.448" y="75.998" width="46.467" height="35" rx="3.5" transform="rotate(-105 26.448 75.998)" stroke="#373737"/><rect x="26.694" y="43.724" width="11.158" height="1.235" rx=".618" transform="rotate(-15 26.694 43.724)" fill="#373737"/><rect x="27.947" y="48.399" width="17.819" height="1.235" rx=".618" transform="rotate(-15 27.947 48.399)" fill="#373737"/><rect x="29.199" y="53.074" width="17.819" height="1.235" rx=".618" transform="rotate(-15 29.2 53.074)" fill="#373737"/><rect x="30.452" y="57.749" width="17.819" height="1.235" rx=".618" transform="rotate(-15 30.452 57.749)" fill="#373737"/><path d="m91.22 28.275-3.768 9.4c-.467 1.164-2.006 1.674-3.184 1.242-1.222-.45-2.073-1.947-1.589-3.155l5.043-12.582c.353-.882 1.536-1.358 2.431-1.04.94.336 1.556 1.563 1.185 2.49l-4.116 10.267c-.226.565-1.056.92-1.62.693-.565-.226-.92-1.056-.694-1.62l2.782-6.942" stroke="#373737" stroke-linecap="round"/></g><defs><clipPath id="a"><path fill="#fff" d="M0 0h106v79H0z"/></clipPath></defs></svg>
